src/assets/icons/clock.svg

<svg width="16" height="16" viewBox="0 0 16 16" fill="none" xmlns="http://www.w3.org/2000/svg">
<g clip-path="url(#clip0_8874_15296)">
<path fill-rule="evenodd" clip-rule="evenodd" d="M7.46218 0.0158669C5.75943 0.131112 4.19145 0.764035 2.84555 1.8794C2.62523 2.06196 2.06347 2.62372 1.88091 2.84403C0.8605 4.07536 0.246026 5.48548 0.0591891 7.02465C-0.190468 9.08124 0.362792 11.1568 1.59748 12.7954C1.84637 13.1257 2.01466 13.3176 2.34858 13.6515C2.6825 13.9854 2.87431 14.1537 3.20462 14.4026C4.71332 15.5393 6.619 16.1076 8.50682 15.9836C10.2345 15.8701 11.8014 15.2418 13.156 14.1191C13.3763 13.9366 13.9381 13.3748 14.1207 13.1545C14.6905 12.4669 15.1067 11.7738 15.4247 10.983C16.4662 8.39322 16.0765 5.42273 14.4041 3.2031C14.1552 2.87279 13.9869 2.68098 13.653 2.34706C13.3191 2.01314 13.1273 1.84486 12.797 1.59597C11.2814 0.454071 9.36671 -0.11304 7.46218 0.0158669ZM7.62032 1.72517C6.3203 1.80334 5.09157 2.27808 4.05618 3.10227C3.84011 3.27427 3.27578 3.83859 3.10379 4.05467C2.37587 4.96914 1.91699 6.04177 1.76849 7.17599C1.6039 8.43298 1.81872 9.69315 2.39278 10.8383C2.69629 11.4438 3.046 11.9222 3.56198 12.4379C4.2898 13.1652 5.05214 13.6393 6.0088 13.9594C7.60875 14.4948 9.31984 14.3691 10.8461 13.6041C11.4433 13.3048 11.9251 12.9522 12.4394 12.4379C13.1663 11.7109 13.6408 10.9481 13.9609 9.99126C14.4963 8.39131 14.3706 6.68021 13.6057 5.15394C13.3065 4.55696 12.954 4.07542 12.4394 3.56046C11.7138 2.83441 10.9499 2.35941 9.99278 2.03913C9.42999 1.85082 8.96299 1.76171 8.34276 1.72429C8.0329 1.70561 7.94378 1.70571 7.62032 1.72517ZM7.78304 3.32351C7.49007 3.40241 7.2484 3.64587 7.17203 3.93906C7.13308 4.08859 7.13247 8.06035 7.17137 8.2097C7.24913 8.50831 7.49073 8.75065 7.78777 8.82802C7.93882 8.86737 10.8157 8.86733 10.9668 8.82799C11.1174 8.78878 11.2283 8.72235 11.3546 8.59577C11.6135 8.3363 11.6787 7.95767 11.5212 7.6277C11.4579 7.49493 11.2823 7.31088 11.1542 7.24284C10.9709 7.1455 10.9555 7.14434 9.86095 7.14434H8.85572V5.59195C8.85572 3.90423 8.85806 3.94901 8.75962 3.75476C8.69857 3.63428 8.53356 3.46635 8.41317 3.4022C8.22225 3.30043 7.9807 3.27027 7.78304 3.32351Z" fill="currentColor"/>
</g>
<defs>
<clipPath id="clip0_8874_15296">
<rect width="16" height="16" fill="white" transform="translate(0 -0.000732422)"/>
</clipPath>
</defs>
</svg>

<svg xmlns="http://www.w3.org/2000/svg" width="16" height="16" fill="none">
  <g clip-path="url(#a)">
    <path fill="currentColor" fill-rule="evenodd" d="M7.462.016C5.76.13 4.192.764 2.846 1.879c-.22.183-.783.745-.965.965C.86 4.075.246 5.485.059 7.024a8 8 0 0 0 1.538 5.771c.25.33.418.523.752.857.333.333.525.502.856.75a7.998 7.998 0 0 0 9.951-.283c.22-.182.782-.744.965-.964a8.006 8.006 0 0 0 .283-9.951 7.03 7.03 0 0 0-.751-.857 7.026 7.026 0 0 0-.856-.751A8.014 8.014 0 0 0 7.462.016Zm.158 1.71a6.299 6.299 0 0 0-3.564 1.376c-.216.172-.78.737-.952.953a6.321 6.321 0 0 0-1.336 3.121 6.3 6.3 0 0 0 .625 3.662 5.868 5.868 0 0 0 1.169 1.6 6.018 6.018 0 0 0 2.447 1.521c1.6.536 3.31.41 4.837-.355a5.88 5.88 0 0 0 1.593-1.166 6.015 6.015 0 0 0 1.522-2.447c.535-1.6.41-3.31-.355-4.837a5.887 5.887 0 0 0-1.167-1.594 6.014 6.014 0 0 0-2.446-1.52 5.945 5.945 0 0 0-1.65-.316 4.57 4.57 0 0 0-.723.001Zm.163 1.598a.88.88 0 0 0-.611.615c-.039.15-.04 4.121 0 4.27a.87.87 0 0 0 .616.619c.15.04 3.028.04 3.179 0a.794.794 0 0 0 .388-.232.84.84 0 0 0 .166-.968 1.047 1.047 0 0 0-.367-.385c-.183-.098-.198-.099-1.293-.099H8.856V5.592c0-1.688.002-1.643-.096-1.837a1.01 1.01 0 0 0-.347-.353.898.898 0 0 0-.63-.078Z" clip-rule="evenodd"/>
  </g>
  <defs>
    <clipPath id="a">
      <path fill="#fff" d="M0 0h16v16H0z"/>
    </clipPath>
  </defs>
</svg>
